dist/images/footer/facebook.svg

<svg width="18" height="18" viewBox="0 0 18 18" fill="none" xmlns="http://www.w3.org/2000/svg">
<path d="M11.9976 2.98875H13.6409V0.12675C13.3574 0.08775 12.3824 0 11.2469 0C6.04789 0 7.46239 5.8875 7.25539 6.75H4.64014V9.9495H7.25464V18H10.4601V9.95025H12.9689L13.3671 6.75075H10.4594C10.6004 4.63275 9.88864 2.98875 11.9976 2.98875Z" fill="white"/>
</svg>

<svg width="18" height="18" fill="none" xmlns="http://www.w3.org/2000/svg"><path d="M11.998 2.989h1.643V.127A21.22 21.22 0 0011.247 0c-5.2 0-3.785 5.888-3.992 6.75H4.64v3.2h2.615V18h3.205V9.95h2.509l.398-3.2H10.46c.141-2.117-.57-3.761 1.539-3.761z" fill="#fff"/></svg>
